assets/img/avataaars.svg

<svg width="264px" height="280px" viewBox="0 0 264 280" version="1.1" xmlns="http://www.w3.org/2000/svg" xmlns:xlink="http://www.w3.org/1999/xlink"><desc>Created with getavataaars.com</desc><defs><circle id="react-path-1" cx="120" cy="120" r="120"></circle><path d="M12,160 C12,226.27417 65.72583,280 132,280 C198.27417,280 252,226.27417 252,160 L264,160 L264,-1.42108547e-14 L-3.19744231e-14,-1.42108547e-14 L-3.19744231e-14,160 L12,160 Z" id="react-path-2"></path><path d="M124,144.610951 L124,163 L128,163 L128,163 C167.764502,163 200,195.235498 200,235 L200,244 L0,244 L0,235 C-4.86974701e-15,195.235498 32.235498,163 72,163 L72,163 L76,163 L76,144.610951 C58.7626345,136.422372 46.3722246,119.687011 44.3051388,99.8812385 C38.4803105,99.0577866 34,94.0521096 34,88 L34,74 C34,68.0540074 38.3245733,63.1180731 44,62.1659169 L44,56 L44,56 C44,25.072054 69.072054,5.68137151e-15 100,0 L100,0 L100,0 C130.927946,-5.68137151e-15 156,25.072054 156,56 L156,62.1659169 C161.675427,63.1180731 166,68.0540074 166,74 L166,88 C166,94.0521096 161.51969,99.0577866 155.694861,99.8812385 C153.627775,119.687011 141.237365,136.422372 124,144.610951 Z" id="react-path-3"></path></defs><g id="Avataaar" stroke="none" stroke-width="1" fill="none" fill-rule="evenodd"><g transform="translate(-825.000000, -1100.000000)" id="Avataaar/Circle"><g transform="translate(825.000000, 1100.000000)"><g id="Circle" stroke-width="1" fill-rule="evenodd" transform="translate(12.000000, 40.000000)"><mask id="react-mask-4" fill="white"><use xlink:href="#react-path-1"></use></mask><use id="Circle-Background" fill="#E6E6E6" xlink:href="#react-path-1"></use><g id="Color/Palette/Blue-01" mask="url(#react-mask-4)" fill="#65C9FF"><rect id="🖍Color" x="0" y="0" width="240" height="240"></rect></g></g><mask id="react-mask-5" fill="white"><use xlink:href="#react-path-2"></use></mask><g id="Mask"></g><g id="Avataaar" stroke-width="1" fill-rule="evenodd" mask="url(#react-mask-5)"><g id="Body" transform="translate(32.000000, 36.000000)"><mask id="react-mask-6" fill="white"><use xlink:href="#react-path-3"></use></mask><use fill="#D0C6AC" xlink:href="#react-path-3"></use><g id="Skin/👶🏽-03-Brown" mask="url(#react-mask-6)" fill="#D08B5B"><g transform="translate(0.000000, 0.000000)" id="Color"><rect x="0" y="0" width="264" height="280"></rect></g></g><path d="M156,79 L156,102 C156,132.927946 130.927946,158 100,158 C69.072054,158 44,132.927946 44,102 L44,79 L44,94 C44,124.927946 69.072054,150 100,150 C130.927946,150 156,124.927946 156,94 L156,79 Z" id="Neck-Shadow" fill-opacity="0.100000001" fill="#000000" mask="url(#react-mask-6)"></path></g><g id="Clothing/Shirt-Crew-Neck" transform="translate(0.000000, 170.000000)"><defs><path d="M165.960472,29.2949161 C202.936473,32.3249982 232,63.2942856 232,101.051724 L232,110 L32,110 L32,101.051724 C32,62.9525631 61.591985,31.7649812 99.0454063,29.2195264 C99.0152598,29.5931145 99,29.9692272 99,30.3476251 C99,42.2107177 113.998461,51.8276544 132.5,51.8276544 C151.001539,51.8276544 166,42.2107177 166,30.3476251 C166,29.9946691 165.986723,29.6437014 165.960472,29.2949161 Z" id="react-path-51"></path></defs><mask id="react-mask-52" fill="white"><use xlink:href="#react-path-51"></use></mask><use id="Clothes" fill="#E6E6E6" fill-rule="evenodd" xlink:href="#react-path-51"></use><g id="Color/Palette/Gray-01" mask="url(#react-mask-52)" fill-rule="evenodd" fill="#3C4F5C"><rect id="🖍Color" x="0" y="0" width="264" height="110"></rect></g><g id="Shadowy" opacity="0.599999964" stroke-width="1" fill-rule="evenodd" mask="url(#react-mask-52)" fill-opacity="0.16" fill="#000000"><g transform="translate(92.000000, 4.000000)" id="Hola-👋🏼"><ellipse cx="40.5" cy="27.8476251" rx="39.6351047" ry="26.9138272"></ellipse></g></g></g><g id="Face" transform="translate(76.000000, 82.000000)" fill="#000000"><g id="Mouth/Default" transform="translate(2.000000, 52.000000)" fill-opacity="0.699999988"><path d="M40,15 C40,22.7319865 46.2680135,29 54,29 L54,29 C61.7319865,29 68,22.7319865 68,15" id="Mouth"></path></g><g id="Nose/Default" transform="translate(28.000000, 40.000000)" fill-opacity="0.16"><path d="M16,8 C16,12.418278 21.372583,16 28,16 L28,16 C34.627417,16 40,12.418278 40,8" id="Nose"></path></g><g id="Eyes/Default-😀" transform="translate(0.000000, 8.000000)" fill-opacity="0.599999964"><circle id="Eye" cx="30" cy="22" r="6"></circle><circle id="Eye" cx="82" cy="22" r="6"></circle></g><g id="Eyebrow/Natural/Default-Natural" fill-opacity="0.599999964"><path d="M26.0390934,6.21012364 C20.2775554,6.98346216 11.2929313,12.0052479 12.04426,17.8178111 C12.0689481,18.0080543 12.3567302,18.0673468 12.4809077,17.9084937 C14.9674041,14.7203351 34.1927973,10.0365481 41.1942673,11.0147151 C41.8350523,11.1044465 42.2580662,10.4430343 41.8210501,10.0302067 C38.0765663,6.49485426 31.2003792,5.51224825 26.0390934,6.21012364" id="Eyebrow" transform="translate(27.000000, 12.000000) rotate(5.000000) translate(-27.000000, -12.000000) "></path><path d="M85.0390934,6.21012364 C79.2775554,6.98346216 70.2929313,12.0052479 71.04426,17.8178111 C71.0689481,18.0080543 71.3567302,18.0673468 71.4809077,17.9084937 C73.9674041,14.7203351 93.1927973,10.0365481 100.194267,11.0147151 C100.835052,11.1044465 101.258066,10.4430343 100.82105,10.0302067 C97.0765663,6.49485426 90.2003792,5.51224825 85.0390934,6.21012364" id="Eyebrow" transform="translate(86.000000, 12.000000) scale(-1, 1) rotate(5.000000) translate(-86.000000, -12.000000) "></path></g></g><g id="Top" stroke-width="1" fill-rule="evenodd"><defs><rect id="react-path-29" x="0" y="0" width="264" height="280"></rect><path d="M183.679824,38.9488198 C189.086072,33.9985622 190.387393,23.9615454 187.317704,17.4493246 C183.549263,9.45385312 175.901319,8.45217737 168.572342,11.9686703 C161.664469,15.2835661 155.515175,16.3878671 147.950196,14.7817319 C140.691624,13.2406923 133.805566,10.5226172 126.303388,10.0762471 C113.978028,9.34292483 102.003367,13.914565 93.6031232,23.1292512 C92.0003538,24.8871655 90.7089493,26.8971594 89.4882796,28.9343872 C88.5115454,30.5644351 87.4105298,32.3133822 86.9950459,34.1921885 C86.7973853,35.0855929 87.165272,37.2898774 86.7203704,38.0218712 C86.2391099,38.8123183 84.4244668,39.5373375 83.6510124,40.1238625 C82.0842713,41.3125222 80.7267597,42.6539573 79.4713836,44.1710842 C76.8052796,47.3926541 75.3376994,50.7577001 74.1034777,54.7428152 C70.0005333,67.9877849 69.6528094,83.7412616 74.9569218,96.7467724 C75.6639385,98.4811062 77.8550622,102.098564 79.1431613,98.3847912 C79.3976741,97.6508047 78.8086588,95.1907873 78.8099809,94.4501584 C78.8146084,91.7300906 80.3160587,73.7213568 86.857084,63.6330196 C88.9862338,60.3491948 98.8298903,48.0522456 100.840541,47.9536058 C101.9058,49.6464245 112.720532,60.4624529 140.783385,59.1948919 C153.445253,58.6229725 163.18265,52.9341181 165.520833,50.4680909 C166.549375,56.0008881 178.51323,64.2839965 180.33625,67.6921976 C185.602529,77.5376948 186.770677,97.9957204 188.780988,97.9573368 C190.791299,97.9189532 192.234429,92.7197798 192.647929,91.7270713 C195.719601,84.351669 196.242509,75.0948338 195.914948,67.1684434 C195.487565,56.9663626 191.276535,45.9419513 183.679824,38.9488198 Z" id="react-path-28"></path><filter x="-0.8%" y="-2.0%" width="101.5%" height="108.0%" filterUnits="objectBoundingBox" id="react-filter-25"><feOffset dx="0" dy="2" in="SourceAlpha" result="shadowOffsetOuter1"></feOffset><feColorMatrix values="0 0 0 0 0   0 0 0 0 0   0 0 0 0 0  0 0 0 0.16 0" type="matrix" in="shadowOffsetOuter1" result="shadowMatrixOuter1"></feColorMatrix><feMerge><feMergeNode in="shadowMatrixOuter1"></feMergeNode><feMergeNode in="SourceGraphic"></feMergeNode></feMerge></filter></defs><mask id="react-mask-27" fill="white"><use xlink:href="#react-path-29"></use></mask><g id="Mask"></g><g id="Top/Short-Hair/Short-Waved" mask="url(#react-mask-27)"><g transform="translate(-1.000000, 0.000000)"><mask id="react-mask-26" fill="white"><use xlink:href="#react-path-28"></use></mask><use id="Short-Hair" stroke="none" fill="#28354B" fill-rule="evenodd" xlink:href="#react-path-28"></use><g id="Skin/👶🏽-03-Brown" mask="url(#react-mask-26)" fill="#2C1B18"><g transform="translate(0.000000, 0.000000) " id="Color"><rect x="0" y="0" width="264" height="280"></rect></g></g></g></g></g></g></g></g></g></svg>

<?xml version="1.0" encoding="utf-8"?>
<!-- Generator: Adobe Illustrator 23.0.3, SVG Export Plug-In . SVG Version: 6.00 Build 0)  -->
<svg version="1.1" id="Layer_1" xmlns="http://www.w3.org/2000/svg" xmlns:xlink="http://www.w3.org/1999/xlink" x="0px" y="0px"
	 viewBox="0 0 264 280" style="enable-background:new 0 0 264 280;" xml:space="preserve">
<style type="text/css">
	.st0{fill-rule:evenodd;clip-rule:evenodd;fill:#E6E6E6;}
	.st1{filter:url(#Adobe_OpacityMaskFilter);}
	.st2{fill-rule:evenodd;clip-rule:evenodd;fill:#FFFFFF;}
	.st3{mask:url(#mask-2_1_);}
	.st4{fill-rule:evenodd;clip-rule:evenodd;fill:#2C3E50;}
	.st5{filter:url(#Adobe_OpacityMaskFilter_1_);}
	.st6{mask:url(#mask-4_1_);}
	.st7{fill-rule:evenodd;clip-rule:evenodd;fill:#D0C6AC;}
	.st8{filter:url(#Adobe_OpacityMaskFilter_2_);}
	.st9{mask:url(#mask-6_1_);}
	.st10{fill-rule:evenodd;clip-rule:evenodd;fill:#EDB98A;}
	.st11{filter:url(#Adobe_OpacityMaskFilter_3_);}
	.st12{mask:url(#mask-6_2_);fill-rule:evenodd;clip-rule:evenodd;fill-opacity:0.1;}
	.st13{filter:url(#Adobe_OpacityMaskFilter_4_);}
	.st14{mask:url(#react-mask-952_1_);}
	.st15{filter:url(#Adobe_OpacityMaskFilter_5_);}
	.st16{opacity:0.6;mask:url(#react-mask-952_2_);}
	.st17{fill-rule:evenodd;clip-rule:evenodd;fill-opacity:0.16;}
	.st18{fill-rule:evenodd;clip-rule:evenodd;fill-opacity:0.7;}
	.st19{filter:url(#Adobe_OpacityMaskFilter_6_);}
	.st20{mask:url(#react-mask-934_1_);fill-rule:evenodd;clip-rule:evenodd;fill:#FFFFFF;}
	.st21{filter:url(#Adobe_OpacityMaskFilter_7_);}
	.st22{mask:url(#react-mask-934_2_);}
	.st23{fill-rule:evenodd;clip-rule:evenodd;fill:#FF4F6D;}
	.st24{fill-rule:evenodd;clip-rule:evenodd;fill-opacity:0.6;}
	.st25{filter:url(#Adobe_OpacityMaskFilter_8_);}
	.st26{mask:url(#react-mask-925_1_);}
	.st27{fill-rule:evenodd;clip-rule:evenodd;fill:#28354B;}
	.st28{filter:url(#Adobe_OpacityMaskFilter_9_);}
	.st29{mask:url(#react-mask-924_1_);}
	.st30{fill-rule:evenodd;clip-rule:evenodd;fill:#4A312C;}
</style>
<desc>Created with getavataaars.com</desc>
<g>
	<g transform="translate(-825.000000, -1100.000000)">
		<g transform="translate(825.000000, 1100.000000)">
			<g id="Circle" transform="translate(12.000000, 40.000000)">
				<g id="Circle-Background">
					<circle class="st0" cx="120" cy="120" r="120"/>
				</g>
				<defs>
					<filter id="Adobe_OpacityMaskFilter" filterUnits="userSpaceOnUse" x="0" y="0" width="240" height="240">
						<feColorMatrix  type="matrix" values="1 0 0 0 0  0 1 0 0 0  0 0 1 0 0  0 0 0 1 0"/>
					</filter>
				</defs>
				<mask maskUnits="userSpaceOnUse" x="0" y="0" width="240" height="240" id="mask-2_1_">
					<g class="st1">
						<circle id="path-1_1_" class="st2" cx="120" cy="120" r="120"/>
					</g>
				</mask>
				<g class="st3">
					<rect class="st4" width="240" height="240"/>
				</g>
			</g>
			<g id="Mask">
			</g>
			<defs>
				<filter id="Adobe_OpacityMaskFilter_1_" filterUnits="userSpaceOnUse" x="-1" y="0" width="265" height="280">
					<feColorMatrix  type="matrix" values="1 0 0 0 0  0 1 0 0 0  0 0 1 0 0  0 0 0 1 0"/>
				</filter>
			</defs>
			<mask maskUnits="userSpaceOnUse" x="-1" y="0" width="265" height="280" id="mask-4_1_">
				<g class="st5">
					<path id="path-3_1_" class="st2" d="M12,160c0,66.3,53.7,120,120,120s120-53.7,120-120h12V0H0v160H12z"/>
				</g>
			</mask>
			<g id="Avataaar" class="st6">
				<g id="Body" transform="translate(32.000000, 36.000000)">
					<g>
						<path class="st7" d="M124,144.6V163h4l0,0c39.8,0,72,32.2,72,72v9H0v-9c0-39.8,32.2-72,72-72l0,0h4v-18.4
							c-17.2-8.2-29.6-24.9-31.7-44.7C38.5,99.1,34,94.1,34,88V74c0-5.9,4.3-10.9,10-11.8V56l0,0c0-30.9,25.1-56,56-56l0,0l0,0
							c30.9,0,56,25.1,56,56v6.2c5.7,1,10,5.9,10,11.8v14c0,6.1-4.5,11.1-10.3,11.9C153.6,119.7,141.2,136.4,124,144.6z"/>
					</g>
					<defs>
						<filter id="Adobe_OpacityMaskFilter_2_" filterUnits="userSpaceOnUse" x="-32" y="0" width="264" height="244">
							<feColorMatrix  type="matrix" values="1 0 0 0 0  0 1 0 0 0  0 0 1 0 0  0 0 0 1 0"/>
						</filter>
					</defs>
					<mask maskUnits="userSpaceOnUse" x="-32" y="0" width="264" height="244" id="mask-6_1_">
						<g class="st8">
							<path id="path-5_1_" class="st2" d="M124,144.6V163h4l0,0c39.8,0,72,32.2,72,72v9H0v-9c0-39.8,32.2-72,72-72l0,0h4v-18.4
								c-17.2-8.2-29.6-24.9-31.7-44.7C38.5,99.1,34,94.1,34,88V74c0-5.9,4.3-10.9,10-11.8V56l0,0c0-30.9,25.1-56,56-56l0,0l0,0
								c30.9,0,56,25.1,56,56v6.2c5.7,1,10,5.9,10,11.8v14c0,6.1-4.5,11.1-10.3,11.9C153.6,119.7,141.2,136.4,124,144.6z"/>
						</g>
					</mask>
					<g class="st9">
						<g id="Color" transform="translate(-32.000000, 0.000000)">
							<rect class="st10" width="264" height="244"/>
						</g>
					</g>
					<defs>
						<filter id="Adobe_OpacityMaskFilter_3_" filterUnits="userSpaceOnUse" x="44" y="79" width="112" height="79">
							<feColorMatrix  type="matrix" values="1 0 0 0 0  0 1 0 0 0  0 0 1 0 0  0 0 0 1 0"/>
						</filter>
					</defs>
					<mask maskUnits="userSpaceOnUse" x="44" y="79" width="112" height="79" id="mask-6_2_">
						<g class="st11">
							<path id="path-5_2_" class="st2" d="M124,144.6V163h4l0,0c39.8,0,72,32.2,72,72v9H0v-9c0-39.8,32.2-72,72-72l0,0h4v-18.4
								c-17.2-8.2-29.6-24.9-31.7-44.7C38.5,99.1,34,94.1,34,88V74c0-5.9,4.3-10.9,10-11.8V56l0,0c0-30.9,25.1-56,56-56l0,0l0,0
								c30.9,0,56,25.1,56,56v6.2c5.7,1,10,5.9,10,11.8v14c0,6.1-4.5,11.1-10.3,11.9C153.6,119.7,141.2,136.4,124,144.6z"/>
						</g>
					</mask>
					<path id="Neck-Shadow" class="st12" d="M156,79v23c0,30.9-25.1,56-56,56s-56-25.1-56-56V79v15c0,30.9,25.1,56,56,56
						s56-25.1,56-56V79z"/>
				</g>
				<g transform="translate(0.000000, 170.000000)">
					<g id="Clothes">
						<path class="st0" d="M166,29.3c37,3,66,34,66,71.8v8.9H32v-8.9C32,63,61.6,31.8,99,29.2c0,0.4,0,0.7,0,1.1
							c0,11.9,15,21.5,33.5,21.5S166,42.2,166,30.3C166,30,166,29.6,166,29.3z"/>
					</g>
					<defs>
						<filter id="Adobe_OpacityMaskFilter_4_" filterUnits="userSpaceOnUse" x="0" y="0" width="264" height="110">
							<feColorMatrix  type="matrix" values="1 0 0 0 0  0 1 0 0 0  0 0 1 0 0  0 0 0 1 0"/>
						</filter>
					</defs>
					<mask maskUnits="userSpaceOnUse" x="0" y="0" width="264" height="110" id="react-mask-952_1_">
						<g class="st13">
							<path id="react-path-951_1_" class="st2" d="M166,29.3c37,3,66,34,66,71.8v8.9H32v-8.9C32,63,61.6,31.8,99,29.2
								c0,0.4,0,0.7,0,1.1c0,11.9,15,21.5,33.5,21.5S166,42.2,166,30.3C166,30,166,29.6,166,29.3z"/>
						</g>
					</mask>
					<g class="st14">
						<rect class="st2" width="264" height="110"/>
					</g>
					<defs>
						<filter id="Adobe_OpacityMaskFilter_5_" filterUnits="userSpaceOnUse" x="92.9" y="4.9" width="79.3" height="53.8">
							<feColorMatrix  type="matrix" values="1 0 0 0 0  0 1 0 0 0  0 0 1 0 0  0 0 0 1 0"/>
						</filter>
					</defs>
					<mask maskUnits="userSpaceOnUse" x="92.9" y="4.9" width="79.3" height="53.8" id="react-mask-952_2_">
						<g class="st15">
							<path id="react-path-951_2_" class="st2" d="M166,29.3c37,3,66,34,66,71.8v8.9H32v-8.9C32,63,61.6,31.8,99,29.2
								c0,0.4,0,0.7,0,1.1c0,11.9,15,21.5,33.5,21.5S166,42.2,166,30.3C166,30,166,29.6,166,29.3z"/>
						</g>
					</mask>
					<g id="Shadowy" class="st16">
						<g transform="translate(92.000000, 4.000000)">
							<ellipse class="st17" cx="40.5" cy="27.8" rx="39.6" ry="26.9"/>
						</g>
					</g>
				</g>
				<g id="Face" transform="translate(76.000000, 82.000000)">
					<g transform="translate(2.000000, 52.000000)">
						<g id="Mouth">
							<path class="st18" d="M35.1,15.1C36.2,24.6,44.2,32,54,32c9.8,0,17.9-7.4,18.9-17c0.1-0.8-0.8-2-1.8-2c-14.9,0-26.3,0-34,0
								C36,13,35,14.2,35.1,15.1z"/>
						</g>
						<defs>
							<filter id="Adobe_OpacityMaskFilter_6_" filterUnits="userSpaceOnUse" x="39" y="2" width="31" height="16">
								<feColorMatrix  type="matrix" values="1 0 0 0 0  0 1 0 0 0  0 0 1 0 0  0 0 0 1 0"/>
							</filter>
						</defs>
						<mask maskUnits="userSpaceOnUse" x="39" y="2" width="31" height="16" id="react-mask-934_1_">
							<g class="st19">
								<path id="react-path-933_1_" class="st2" d="M35.1,15.1C36.2,24.6,44.2,32,54,32c9.8,0,17.9-7.4,18.9-17
									c0.1-0.8-0.8-2-1.8-2c-14.9,0-26.3,0-34,0C36,13,35,14.2,35.1,15.1z"/>
							</g>
						</mask>
						<path id="Teeth" class="st20" d="M44,2h21c2.8,0,5,2.2,5,5v6c0,2.8-2.2,5-5,5H44c-2.8,0-5-2.2-5-5V7C39,4.2,41.2,2,44,2z"/>
						<defs>
							<filter id="Adobe_OpacityMaskFilter_7_" filterUnits="userSpaceOnUse" x="38" y="24" width="32" height="22">
								<feColorMatrix  type="matrix" values="1 0 0 0 0  0 1 0 0 0  0 0 1 0 0  0 0 0 1 0"/>
							</filter>
						</defs>
						<mask maskUnits="userSpaceOnUse" x="38" y="24" width="32" height="22" id="react-mask-934_2_">
							<g class="st21">
								<path id="react-path-933_2_" class="st2" d="M35.1,15.1C36.2,24.6,44.2,32,54,32c9.8,0,17.9-7.4,18.9-17
									c0.1-0.8-0.8-2-1.8-2c-14.9,0-26.3,0-34,0C36,13,35,14.2,35.1,15.1z"/>
							</g>
						</mask>
						<g id="Tongue" class="st22">
							<g transform="translate(38.000000, 24.000000)">
								<circle class="st23" cx="11" cy="11" r="11"/>
								<circle class="st23" cx="21" cy="11" r="11"/>
							</g>
						</g>
					</g>
					<g transform="translate(28.000000, 40.000000)">
						<path id="Nose" class="st17" d="M16,8c0,4.4,5.4,8,12,8l0,0c6.6,0,12-3.6,12-8"/>
					</g>
					<g transform="translate(0.000000, 8.000000)">
						<path id="Squint" class="st24" d="M16.2,22.4C18,18.6,22.2,16,27,16c4.8,0,9,2.6,10.8,6.4c0.6,1.1-0.2,2-1,1.4
							c-2.5-2.1-5.9-3.4-9.8-3.4c-3.7,0-7.1,1.2-9.6,3.2C16.5,24.3,15.6,23.6,16.2,22.4z"/>
						<path class="st24" d="M74.2,22.4C76,18.6,80.2,16,85,16c4.8,0,9,2.6,10.8,6.4c0.6,1.1-0.2,2-1,1.4c-2.5-2.1-5.9-3.4-9.8-3.4
							c-3.7,0-7.1,1.2-9.6,3.2C74.5,24.3,73.6,23.6,74.2,22.4z"/>
					</g>
					<g>
						<path id="Eyebrow" class="st24" d="M26.5,6.1c-5.8,0.3-15.2,4.5-15,10.3c0,0.2,0.3,0.3,0.4,0.1c2.8-3,22.3-5.9,29.2-4.4
							c0.6,0.1,1.1-0.5,0.7-0.9C38.5,7.5,31.7,5.9,26.5,6.1"/>
						<path class="st24" d="M86.5,6.1c5.8,0.3,15.2,4.5,15,10.3c0,0.2-0.3,0.3-0.4,0.1c-2.8-3-22.3-5.9-29.2-4.4
							c-0.6,0.1-1.1-0.5-0.7-0.9C74.5,7.5,81.3,5.9,86.5,6.1"/>
					</g>
				</g>
				<g id="Top">
					<defs>
						<filter id="Adobe_OpacityMaskFilter_8_" filterUnits="userSpaceOnUse" x="-1" y="0" width="264" height="280">
							<feColorMatrix  type="matrix" values="1 0 0 0 0  0 1 0 0 0  0 0 1 0 0  0 0 0 1 0"/>
						</filter>
					</defs>
					<mask maskUnits="userSpaceOnUse" x="-1" y="0" width="264" height="280" id="react-mask-925_1_">
						<g class="st25">
							<rect id="react-path-927_1_" class="st2" width="264" height="280"/>
						</g>
					</mask>
					<g class="st26">
						<g transform="translate(-1.000000, 0.000000)">
							<g id="Short-Hair">
								<path class="st27" d="M183.7,38.9c5.4-5,6.7-15,3.6-21.5c-3.8-8-11.4-9-18.7-5.5c-6.9,3.3-13.1,4.4-20.6,2.8
									c-7.3-1.5-14.1-4.3-21.6-4.7C114,9.3,102,13.9,93.6,23.1c-1.6,1.8-2.9,3.8-4.1,5.8c-1,1.6-2.1,3.4-2.5,5.3
									c-0.2,0.9,0.2,3.1-0.3,3.8c-0.5,0.8-2.3,1.5-3.1,2.1c-1.6,1.2-2.9,2.5-4.2,4c-2.7,3.2-4.1,6.6-5.4,10.6
									c-4.1,13.2-4.5,29,0.9,42c0.7,1.7,2.9,5.4,4.2,1.6c0.3-0.7-0.3-3.2-0.3-3.9c0-2.7,1.5-20.7,8-30.8c2.1-3.3,12-15.6,14-15.7
									c1.1,1.7,11.9,12.5,39.9,11.2c12.7-0.6,22.4-6.3,24.7-8.7c1,5.5,13,13.8,14.8,17.2c5.3,9.8,6.4,30.3,8.4,30.3
									s3.5-5.2,3.9-6.2c3.1-7.4,3.6-16.6,3.3-24.6C195.5,57,191.3,45.9,183.7,38.9z"/>
							</g>
							<defs>
								<filter id="Adobe_OpacityMaskFilter_9_" filterUnits="userSpaceOnUse" x="0" y="0" width="264" height="280">
									<feColorMatrix  type="matrix" values="1 0 0 0 0  0 1 0 0 0  0 0 1 0 0  0 0 0 1 0"/>
								</filter>
							</defs>
							<mask maskUnits="userSpaceOnUse" x="0" y="0" width="264" height="280" id="react-mask-924_1_">
								<g class="st28">
									<path id="react-path-926_1_" class="st2" d="M183.7,38.9c5.4-5,6.7-15,3.6-21.5c-3.8-8-11.4-9-18.7-5.5
										c-6.9,3.3-13.1,4.4-20.6,2.8c-7.3-1.5-14.1-4.3-21.6-4.7C114,9.3,102,13.9,93.6,23.1c-1.6,1.8-2.9,3.8-4.1,5.8
										c-1,1.6-2.1,3.4-2.5,5.3c-0.2,0.9,0.2,3.1-0.3,3.8c-0.5,0.8-2.3,1.5-3.1,2.1c-1.6,1.2-2.9,2.5-4.2,4
										c-2.7,3.2-4.1,6.6-5.4,10.6c-4.1,13.2-4.5,29,0.9,42c0.7,1.7,2.9,5.4,4.2,1.6c0.3-0.7-0.3-3.2-0.3-3.9
										c0-2.7,1.5-20.7,8-30.8c2.1-3.3,12-15.6,14-15.7c1.1,1.7,11.9,12.5,39.9,11.2c12.7-0.6,22.4-6.3,24.7-8.7
										c1,5.5,13,13.8,14.8,17.2c5.3,9.8,6.4,30.3,8.4,30.3s3.5-5.2,3.9-6.2c3.1-7.4,3.6-16.6,3.3-24.6
										C195.5,57,191.3,45.9,183.7,38.9z"/>
								</g>
							</mask>
							<g class="st29">
								<g transform="translate(0.000000, 0.000000) ">
									<rect class="st30" width="264" height="280"/>
								</g>
							</g>
						</g>
					</g>
				</g>
			</g>
		</g>
	</g>
</g>
</svg>
